Numix-Light/16/status/printer-symbolic.svg

<svg viewBox="0 0 16 16" xmlns="http://www.w3.org/2000/svg">
 <path d="M 2.5,0 C 2.2238691,2.76e-5 2.0000276,0.2238691 2,0.5 L 2,7 0.5,7 C 0.223,7 0,7.223 0,7.5 l 0,6 C 0,13.777 0.223,14 0.5,14 L 2,14 2,15.5 C 2,15.777 2.223,16 2.5,16 l 11,0 c 0.277,0 0.5,-0.223 0.5,-0.5 l 0,-1.5 1.5,0 c 0.277,0 0.5,-0.223 0.5,-0.5 l 0,-6 C 16,7.223 15.777,7 15.5,7 L 14,7 14,2 12,0 2.5,0 Z M 3,1 11,1 11,3 13,3 13,7 3,7 3,1 Z m 0,11 10,0 0,3 -10,0 0,-3 z m 11.5,0 A 0.5,0.5 0 0 1 15,12.5 0.5,0.5 0 0 1 14.5,13 0.5,0.5 0 0 1 14,12.5 0.5,0.5 0 0 1 14.5,12 Z" style="visibility:visible;shape-rendering:auto;color-interpolation-filters:linearRGB;fill:#353535;opacity:1;image-rendering:auto;fill-opacity:1;text-rendering:auto;stroke:none;display:inline;color:#000;fill-rule:nonzero;color-rendering:auto;color-interpolation:sRGB"/>
</svg>

<svg viewBox="0 0 16 16" xmlns="http://www.w3.org/2000/svg">
 <path d="m 2.5 0 c -0.276 0 -0.5 0.224 -0.5 0.5 l 0 6.5 l -1.5 0 c -0.277 0 -0.5 0.223 -0.5 0.5 l 0 6 c 0 0.277 0.223 0.5 0.5 0.5 l 1.5 0 l 0 1.5 c 0 0.277 0.223 0.5 0.5 0.5 l 11 0 c 0.277 0 0.5 -0.223 0.5 -0.5 l 0 -1.5 l 1.5 0 c 0.277 0 0.5 -0.223 0.5 -0.5 l 0 -6 c 0 -0.277 -0.223 -0.5 -0.5 -0.5 l -1.5 0 l 0 -5 l -2 -2 l -9.5 0 z m 0.5 1 l 8 0 l 0 2 l 2 0 l 0 4 l -10 0 l 0 -6 z m -2 7 l 14 0 l 0 3 l -14 0 l 0 -3 z m 2 4 l 10 0 l 0 3 l -10 0 l 0 -3 z m 11.5 0 a 0.5 0.5 0 0 1 0.5 0.5 a 0.5 0.5 0 0 1 -0.5 0.5 a 0.5 0.5 0 0 1 -0.5 -0.5 a 0.5 0.5 0 0 1 0.5 -0.5 z" style="visibility:visible;shape-rendering:auto;color-interpolation-filters:linearRGB;fill:#353535;opacity:1;image-rendering:auto;fill-opacity:1;text-rendering:auto;stroke:none;display:inline;color:#000;fill-rule:nonzero;color-rendering:auto;color-interpolation:sRGB"/>
</svg>
